X: 260
T:Roddy Miller's Jig
% Nottingham Music Database
S:Bob McQuillen March 1977, via Phil Rowe
M:6/8
K:G
B|"G"d2B d2B|ded BAG|"A7"ABA G2E|"D7"D3 -D2B|"G"d2B d2B|
"G"ded BAG|"Em"EFG A2B|"A7"A3 -"D7"A2B|"G"d2B d2B|ded BAG|"D"ABA "C"G2E|
"G"D3 -"G7"DB,D|"C"ECE GFE|"G"DGB d2d|"Am"edc "D7"B2A|"G"G3 -G2A||
"Em"B2A "Bm"B2A|"Em"Bcd "Am"edc|"G"BcB "D""f#"AGF|"Em"E3 -"B7"E2A|"Em"B2A B2A|\
"Bm"Bcd "C"edc|
"G"BcB "Am"ABc|"B7"B3 -B2d|"Em"ede "G"dBG|"Bm"AGF "Em"E2d|"C"ede "G"dBG|
"Am"ABc "Bm"B2d|"C"ede "D"fef|"Em"gfg "D""f#"aga|"G"bag "Bm7"fed|"Em"e3 -e2||<end>
<start>
